src/16/actions/location.svg

<svg xmlns="http://www.w3.org/2000/svg" width="16" height="16" viewBox="0 0 16 16">
 <defs>
  <style id="current-color-scheme" type="text/css">
   .ColorScheme-Text { color:#5d656b; } .ColorScheme-Highlight { color:#5294e2; }
  </style>
 </defs>
 <path style="fill:currentColor" class="ColorScheme-Text" d="M 4 2 L 4 4 L 11 4 C 12.6793 4 14 5.3207 14 7 C 14 8.6793 12.6793 10 11 10 L 10 10 L 10 8 L 5 11 L 10 14 L 10 12 L 11 12 C 13.7508 12.10093 16 9.7527 16 7 C 16 4.2473 13.7527 2 11 2 L 4 2 z M 2 9 A 2 2 0 0 0 0 11 A 2 2 0 0 0 2 13 A 2 2 0 0 0 4 11 A 2 2 0 0 0 2 9 z"/>
</svg>

<svg xmlns="http://www.w3.org/2000/svg" width="16" height="16"><defs><style id="current-color-scheme" type="text/css"></style></defs><path d="M4 2v2h7c1.68 0 3 1.32 3 3s-1.32 3-3 3h-1V8l-5 3 5 3v-2h1c2.75.1 5-2.247 5-5s-2.247-5-5-5H4zM2 9a2 2 0 0 0-2 2 2 2 0 0 0 2 2 2 2 0 0 0 2-2 2 2 0 0 0-2-2z" fill="currentColor" color="#5d656b"/></svg>
